priv/static/svgs/icons_new/security-shield-secured.svg

<svg width="32" height="32" viewBox="0 0 32 32" fill="none" xmlns="http://www.w3.org/2000/svg">
<path d="M13.7938 24.4055L14.0479 23.9749L13.7938 24.4055ZM18.2062 24.4055L17.9521 23.9749L18.2062 24.4055ZM13.4146 15.0214C13.204 14.8427 12.8885 14.8684 12.7098 15.0789C12.5311 15.2895 12.5569 15.605 12.7674 15.7837L13.4146 15.0214ZM15.2728 17.2548L14.9492 17.6359C15.0504 17.7219 15.1817 17.764 15.314 17.7531C15.4464 17.7421 15.5689 17.679 15.6546 17.5775L15.2728 17.2548ZM19.291 13.2757C19.4693 13.0648 19.4428 12.7493 19.2319 12.571C19.021 12.3928 18.7056 12.4192 18.5273 12.6301L19.291 13.2757ZM12 7H20V6H12V7ZM23.5 10.5V15.8208H24.5V10.5H23.5ZM8.5 15.8208V10.5H7.5V15.8208H8.5ZM14.0479 23.9749C10.811 22.0649 8.5 19.1684 8.5 15.8208H7.5C7.5 19.6618 10.1413 22.8308 13.5397 24.8361L14.0479 23.9749ZM23.5 15.8208C23.5 19.1684 21.189 22.0649 17.9521 23.9749L18.4603 24.8361C21.8587 22.8308 24.5 19.6618 24.5 15.8208H23.5ZM13.5397 24.8361C15.0564 25.7311 16.9436 25.7311 18.4603 24.8361L17.9521 23.9749C16.7489 24.6848 15.2511 24.6848 14.0479 23.9749L13.5397 24.8361ZM20 7C21.933 7 23.5 8.567 23.5 10.5H24.5C24.5 8.01472 22.4853 6 20 6V7ZM12 6C9.51472 6 7.5 8.01472 7.5 10.5H8.5C8.5 8.56701 10.067 7 12 7V6ZM12.7674 15.7837L14.9492 17.6359L15.5964 16.8736L13.4146 15.0214L12.7674 15.7837ZM15.6546 17.5775L19.291 13.2757L18.5273 12.6301L14.8909 16.932L15.6546 17.5775Z" fill="black"/>
</svg>

<svg width="32" height="32" viewBox="0 0 32 32" fill="none" xmlns="http://www.w3.org/2000/svg">
  <symbol id="item" viewBox="0 0 32 32"  fill="none">
    <path d="m13.794 24.405.254-.43-.254.43Zm4.412 0-.254-.43.254.43Zm-4.791-9.384a.5.5 0 1 0-.648.763l.648-.763Zm1.858 2.234-.324.38a.5.5 0 0 0 .706-.058l-.382-.322Zm4.018-3.98a.5.5 0 0 0-.764-.645l.764.646ZM12 7h8V6h-8v1Zm11.5 3.5v5.32h1V10.5h-1Zm-15 5.32V10.5h-1v5.32h1Zm5.548 8.155C10.81 22.065 8.5 19.168 8.5 15.82h-1c0 3.84 2.641 7.01 6.04 9.015l.508-.861ZM23.5 15.82c0 3.347-2.311 6.244-5.548 8.154l.508.861c3.399-2.005 6.04-5.174 6.04-9.015h-1Zm-9.96 9.015a4.844 4.844 0 0 0 4.92 0l-.508-.861a3.845 3.845 0 0 1-3.904 0l-.508.861ZM20 7a3.5 3.5 0 0 1 3.5 3.5h1A4.5 4.5 0 0 0 20 6v1Zm-8-1a4.5 4.5 0 0 0-4.5 4.5h1A3.5 3.5 0 0 1 12 7V6Zm.767 9.784 2.182 1.852.647-.762-2.181-1.853-.648.763Zm2.888 1.793 3.636-4.301-.764-.646-3.636 4.302.764.646Z" fill="currentColor"/>
  </symbol>
</svg>
